modules/hawcons-filled/icons/icon-64-document-movie.svg

<svg width="32" height="32" xmlns="http://www.w3.org/2000/svg"><path d="M19 3H9.009C7.899 3 7 3.898 7 5.007v22.986A2 2 0 0 0 8.997 30h15.006C25.106 30 26 29.11 26 28.003V11h-4.994A1.997 1.997 0 0 1 19 9.002V3zm1 0v5.997c0 .554.451 1.003.99 1.003H26l-6-7zM10 16v11h13V16H10zm3 1v4h7v-4h-7zm0 5v4h7v-4h-7zm-2-5v1h1v-1h-1zm0 2v1h1v-1h-1zm0 2v1h1v-1h-1zm0 2v1h1v-1h-1zm0 2v1h1v-1h-1zm10-8v1h1v-1h-1zm0 2v1h1v-1h-1zm0 2v1h1v-1h-1zm0 2v1h1v-1h-1zm0 2v1h1v-1h-1z" fill="#929292" fill-rule="evenodd"/></svg>

<?xml version="1.0" encoding="UTF-8" standalone="no"?>
<svg width="32px" height="32px" viewBox="0 0 32 32" version="1.1" xmlns="http://www.w3.org/2000/svg" xmlns:xlink="http://www.w3.org/1999/xlink" xmlns:sketch="http://www.bohemiancoding.com/sketch/ns">
    <!-- Generator: Sketch 3.0.3 (7891) - http://www.bohemiancoding.com/sketch -->
    <title>icon 64 document movie</title>
    <desc>Created with Sketch.</desc>
    <defs></defs>
    <g id="Page-1" stroke="none" stroke-width="1" fill="none" fill-rule="evenodd" sketch:type="MSPage">
        <g id="icon-64-document-movie" sketch:type="MSArtboardGroup" fill="#929292">
            <path d="M19,3 L9.0085302,3 C7.8992496,3 7,3.89833832 7,5.00732994 L7,27.9926701 C7,29.1012878 7.89092539,30 8.99742191,30 L24.0025781,30 C25.1057238,30 26,29.1090746 26,28.0025781 L26,11 L21.0059191,11 C19.8980806,11 19,10.1132936 19,9.00189865 L19,3 L19,3 Z M20,3 L20,8.99707067 C20,9.55097324 20.4509752,10 20.990778,10 L26,10 L20,3 L20,3 Z M10,16 L10,27 L23,27 L23,16 L10,16 L10,16 Z M13,17 L13,21 L20,21 L20,17 L13,17 L13,17 Z M13,22 L13,26 L20,26 L20,22 L13,22 L13,22 Z M11,17 L11,18 L12,18 L12,17 L11,17 L11,17 Z M11,19 L11,20 L12,20 L12,19 L11,19 L11,19 Z M11,21 L11,22 L12,22 L12,21 L11,21 L11,21 Z M11,23 L11,24 L12,24 L12,23 L11,23 L11,23 Z M11,25 L11,26 L12,26 L12,25 L11,25 L11,25 Z M21,17 L21,18 L22,18 L22,17 L21,17 L21,17 Z M21,19 L21,20 L22,20 L22,19 L21,19 L21,19 Z M21,21 L21,22 L22,22 L22,21 L21,21 L21,21 Z M21,23 L21,24 L22,24 L22,23 L21,23 L21,23 Z M21,25 L21,26 L22,26 L22,25 L21,25 L21,25 Z" id="document-movie" sketch:type="MSShapeGroup"></path>
        </g>
    </g>
</svg>
